X: 32293
T: Pigeon On The Gate, The
R: reel
M: 4/4
K: Edorian
dc|BE~E2 BEdE|BE~E2 BAFE|D2dB ADED|D3A BAFA|
BE~E2 BEdE|~B2Ad BAFE|DEFA dfed|dBAF E2|
dc|BE~E2 BEdE|BE~E2 BAFE|D2dB ADED|D3A BAFA|
BE~E2 BEdE|BE~E2 BAFE|DEFA dfed|1 dBAF E2:|2 dBAF ~E3A||
|:B2ee efed|Beef gfed|Bddc d3B|AddB ADFA|
B2ee efed|Bdef g2fg|(3agf fe faec|1 dBAF E3A:|2 dBAF E2||

